public/static/icons/editor/list_outdent.svg

<svg height="24" viewBox="0 0 24 24" width="24" xmlns="http://www.w3.org/2000/svg"><g fill-rule="evenodd"><rect height="2.4" rx="1.2" width="19.61" x="4.39" y=".8"/><rect height="2.4" rx="1.2" width="14" x="10" y="5.8"/><rect height="2.4" rx="1.2" width="14" x="10" y="10.8"/><rect height="2.4" rx="1.2" width="14" x="10" y="15.8"/><rect height="2.4" rx="1.2" width="19.61" x="4.39" y="20.8"/><path d="m5.63220554 17.8c-.37859915.0005454-.74580614-.1564642-1.03986368-.444624l-4.07946518-4.0692635c-.32407118-.3117537-.51287668-.7849998-.51287668-1.2855393s.1888055-.9737856.51287668-1.2855393l4.07946518-4.06926353c.50107928-.48514274 1.18719301-.58268164 1.76776825-.25130843.50508407.26902487.83346463.86990235.83988989 1.53684773v8.13852703c-.00642526.6669453-.33480582 1.2678228-.83988989 1.5368477-.22866379.1256522-.4767119.1915279-.72790457.1933156z"/></g></svg>

<svg xmlns="http://www.w3.org/2000/svg" width="24" height="24" viewBox="0 0 24 24">
  <g fill="none" fill-rule="evenodd">
    <rect width="19.61" height="2.4" x="4.39" y=".8" fill="#000" rx="1.2"/>
    <rect width="14" height="2.4" x="10" y="5.8" fill="#000" rx="1.2"/>
    <rect width="14" height="2.4" x="10" y="10.8" fill="#000" rx="1.2"/>
    <rect width="14" height="2.4" x="10" y="15.8" fill="#000" rx="1.2"/>
    <rect width="19.61" height="2.4" x="4.39" y="20.8" fill="#000" rx="1.2"/>
    <path fill="#000" d="M5.63220554,17.8 C5.25360639,17.8005454 4.8863994,17.6435358 4.59234186,17.355376 L0.512876683,13.2861125 C0.188805501,12.9743588 -5.77315973e-15,12.5011127 -5.77315973e-15,12.0005732 C-5.77315973e-15,11.5000337 0.188805501,11.0267876 0.512876683,10.7150339 L4.59234186,6.64577037 C5.09342114,6.16062763 5.77953487,6.06308873 6.36011011,6.39446194 C6.86519418,6.66348681 7.19357474,7.26436429 7.2,7.93130967 L7.2,16.0698367 C7.19357474,16.736782 6.86519418,17.3376595 6.36011011,17.6066844 C6.13144632,17.7323366 5.88339821,17.7982123 5.63220554,17.8 L5.63220554,17.8 Z"/>
  </g>
</svg>
